dist/images/content/logos/netflix.svg

<svg xmlns="http://www.w3.org/2000/svg" width="252.886" height="68.344"><path d="M34.773 63.939c-3.8.668-7.675.868-11.68 1.4L10.879 29.567v37.309c-3.8.4-7.275.934-10.879 1.468V0h10.145l13.882 38.778V0h10.746v63.939zM55.8 25.028c4.138 0 10.479-.2 14.283-.2v10.678c-4.739 0-10.278 0-14.283.2v15.886c6.274-.4 12.548-.935 18.888-1.135v10.277l-29.571 2.337V0h29.567v10.679H55.8v14.35zm58.6-14.349h-11.083V59.8c-3.6 0-7.208 0-10.678.133V10.679h-11.08V0H114.4v10.679zm17.353 13.615h14.617v10.679h-14.621V59.2h-10.48V0H151.1v10.679h-19.351v13.615zm36.708 25.562c6.074.133 12.214.6 18.154.934v10.546c-9.544-.6-19.088-1.2-28.832-1.4V0h10.678v49.856zm27.16 12.214c3.4.2 7.008.4 10.478.8V0h-10.478zM252.886 0l-13.549 32.5 13.549 35.84c-4-.534-8.009-1.268-12.014-1.936L233.2 46.653l-7.808 18.154c-3.872-.668-7.609-.868-11.48-1.4l13.749-31.3L215.243 0h11.479l7.008 17.954L241.206 0h11.68z" fill="#394165"/></svg>

<svg xmlns="http://www.w3.org/2000/svg" width="252.886" height="68.344" viewBox="0 0 252.886 68.344">
  <path id="Netflix_2015_logo" d="M34.773,63.939c-3.8.668-7.675.868-11.68,1.4L10.879,29.567V66.876c-3.8.4-7.275.934-10.879,1.468V0H10.145L24.027,38.778V0H34.773V63.939ZM55.8,25.028c4.138,0,10.479-.2,14.283-.2V35.506c-4.739,0-10.278,0-14.283.2V51.592c6.274-.4,12.548-.935,18.888-1.135V60.734L45.117,63.071V0H74.684V10.679H55.8v14.35Zm58.6-14.349H103.317V59.8c-3.6,0-7.208,0-10.678.133V10.679H81.559V0H114.4V10.679Zm17.353,13.615h14.617V34.973H131.749V59.2H121.269V0H151.1V10.679H131.749V24.294Zm36.708,25.562c6.074.133,12.214.6,18.154.934V61.336c-9.544-.6-19.088-1.2-28.832-1.4V0h10.678V49.856ZM195.621,62.07c3.4.2,7.008.4,10.478.8V0H195.621ZM252.886,0,239.337,32.5l13.549,35.84c-4-.534-8.009-1.268-12.014-1.936L233.2,46.653l-7.808,18.154c-3.872-.668-7.609-.868-11.48-1.4l13.749-31.3L215.243,0h11.479l7.008,17.954L241.206,0h11.68Z" fill="#394165"/>
</svg>
